other/carpetapersonaldesalud.svg

<?xml version="1.0" encoding="UTF-8" standalone="no"?>
<svg
   viewBox="0 0 48 48"
   version="1.1"
   id="svg192"
   xml:space="preserve"
   xmlns="http://www.w3.org/2000/svg"
   xmlns:svg="http://www.w3.org/2000/svg"><defs
     id="defs188"><style
       id="style186">.a{fill:none;stroke:#000;stroke-linecap:round;stroke-linejoin:round;}</style></defs><path
     class="a"
     d="m 20.346546,18.478845 a 4.3583015,4.3583015 0 0 0 -3.381527,7.109396 h -0.0022 l 6.985657,8.198429 6.916643,-8.117042 0.03444,-0.04082 0.03521,-0.04069 h -0.0034 a 4.3585566,4.3585566 0 1 0 -6.984636,-5.201897 4.3603426,4.3603426 0 0 0 -3.59992,-1.907498 z"
     id="path692"
     style="fill:none;stroke:#ffffff;stroke-width:1.27566;stroke-linecap:round;stroke-linejoin:round" /><path
     id="path320"
     style="fill:none;stroke:#ffffff;stroke-linecap:round;stroke-linejoin:round"
     class="a"
     d="M 6.6796875 8.8046875 A 2.1762 2.1762 0 0 0 4.5 10.976562 L 4.5 18.283203 L 4.5 37.015625 A 2.1762 2.1762 0 0 0 6.6738281 39.195312 L 41.320312 39.195312 A 2.1762 2.1762 0 0 0 43.5 37.023438 L 43.5 18.283203 L 43.5 14.865234 A 1.8217 1.8217 0 0 0 41.677734 13.042969 L 24.769531 13.042969 C 22.806733 12.935769 18.839029 8.8066406 16.582031 8.8066406 L 6.6796875 8.8066406 L 6.6796875 8.8046875 z " /></svg>

<?xml version="1.0" encoding="UTF-8"?><svg id="a" xmlns="http://www.w3.org/2000/svg" viewBox="0 0 48 48"><defs><style>.d{fill:none;stroke:#fff;stroke-linecap:round;stroke-linejoin:round;}</style></defs><path id="b" class="d" d="m20.3465,18.4788c-2.407-.0007-4.3589,1.95-4.3596,4.3571-.0003,1.0026.3451,1.9747.978,2.7523h-.0022l6.9857,8.1984,6.9166-8.117.0344-.0408.0352-.0407h-.0034c1.5203-1.8663,1.2397-4.6117-.6266-6.132-1.8663-1.5203-4.6117-1.2397-6.132.6266-.0797.0978-.1551.1991-.226.3035-.8109-1.1918-2.1584-1.9058-3.5999-1.9075h-.0003Z"/><path id="c" class="d" d="m6.6797,8.8047c-1.2016-.0019-2.1773.9703-2.1797,2.1719v26.0391c-.0019,1.2019.9708,2.1778,2.1727,2.1797h34.6476c1.2016.0019,2.1773-.9703,2.1797-2.1719V14.8652c.0003-1.0061-.815-1.822-1.8211-1.8223h-16.9093c-1.9628-.1072-5.9305-4.2363-8.1875-4.2363H6.6797v-.002Z"/></svg>
